artwork/resources/intui/icons/shell/toolbar/gradle-sync@20x20.svg

<svg width="20" height="20" viewBox="0 0 20 20" fill="none" xmlns="http://www.w3.org/2000/svg">
<path fill-rule="evenodd" clip-rule="evenodd" d="M17.7404 2.69573C18.6163 2.99037 19.2611 3.67616 19.5722 4.31709C19.6623 4.49159 19.7264 4.67492 19.767 4.8631C19.7883 4.94001 19.8096 5.02456 19.8299 5.11627C19.9327 5.5804 20.0098 6.23288 19.9176 7.00853C19.7778 8.18476 19.2562 9.5829 17.955 11H15.7568C16.9472 10.0453 17.6288 9.11217 18.0096 8.28565C17.5487 8.52745 17.0085 8.6733 16.4004 8.6733C15.5237 8.6733 14.6917 8.30872 13.936 7.92828C13.7069 7.81293 13.4828 7.69513 13.2589 7.57746L13.2588 7.57742C12.6979 7.28263 12.1386 6.98865 11.5063 6.73606C9.8337 6.06794 7.76577 5.7474 4.82243 7.26289C4.75177 7.29928 4.69487 7.39959 4.73337 7.51907L4.95644 8.21132L4.96022 8.22305L4.96012 8.22308L5.70831 10.6827C5.74403 10.779 5.83557 10.8765 6.04966 10.9239C6.28142 10.9751 6.54421 10.9336 6.7176 10.8362L6.72804 10.8304L6.72808 10.8304C7.53091 10.3963 8.26696 9.88455 8.94181 9.27667C9.24958 8.99944 9.7238 9.0242 10.001 9.33196C10.2783 9.63973 10.2535 10.114 9.94573 10.3912C9.1786 11.0822 8.34548 11.6607 7.44633 12.1473C6.93483 12.4325 6.29537 12.5144 5.7259 12.3885C5.14255 12.2596 4.53132 11.8816 4.28522 11.1573L4.28133 11.1458L4.27781 11.1342L3.83128 9.66632C3.01941 10.3466 2.43644 11.1497 2.05629 12.0751C1.6118 13.157 1.42995 14.4426 1.52418 15.95H2.15827C2.56743 14.9795 3.52595 14.3143 4.62392 14.3143C5.72157 14.3143 6.67984 14.9791 7.0892 15.9491H7.80519C8.21455 14.9791 9.17282 14.3143 10.2705 14.3143C10.5224 14.3143 10.7673 14.3491 11 14.4144V16.0635C10.7994 15.9069 10.5458 15.8143 10.2705 15.8143C9.72438 15.8143 9.25594 16.1893 9.12874 16.709C9.03274 17.1011 8.6784 17.4491 8.19505 17.4491H6.69934C6.21599 17.4491 5.86165 17.1011 5.76565 16.709C5.63845 16.1893 5.17001 15.8143 4.62392 15.8143C4.07766 15.8143 3.6091 16.1896 3.48207 16.7094C3.3862 17.1017 3.03181 17.45 2.54829 17.45H0.926447C0.488459 17.45 0.126435 17.118 0.0813478 16.6887C-0.121883 14.7534 0.049278 13.0131 0.668807 11.5051C1.22232 10.1577 2.11896 9.03244 3.3563 8.13624L3.30567 7.97913C3.0563 7.20526 3.37197 6.32256 4.13578 5.92928C7.5116 4.19112 10.0377 4.53418 12.0627 5.34309C12.773 5.62682 13.4392 5.97694 14.021 6.28275C14.2289 6.392 14.426 6.49559 14.6105 6.58848C15.359 6.96527 15.9105 7.1733 16.4004 7.1733C17.155 7.1733 17.7061 6.79371 18.025 6.30586C18.2951 5.89256 18.3555 5.48118 18.3029 5.19921C18.2873 5.14739 18.2727 5.10367 18.2602 5.06862C18.2459 5.02844 18.2344 4.99989 18.2278 4.98385L18.2222 4.97099C18.0601 4.63744 17.7015 4.26524 17.2622 4.11744C16.8794 3.98867 16.3343 3.99439 15.6474 4.59463C15.3355 4.86719 14.8617 4.83529 14.5892 4.52338C14.3166 4.21148 14.3485 3.73768 14.6604 3.46512C15.7057 2.55167 16.7998 2.37929 17.7404 2.69573Z" fill="#6C707E"/>
<path fill-rule="evenodd" clip-rule="evenodd" d="M11.5569 9.51311C11.4617 9.4519 11.4054 9.34103 11.4369 9.23226C11.5518 8.83583 11.8961 8.53852 12.3182 8.49265C12.8024 8.44002 13.2577 8.73257 13.4111 9.19491C13.5448 9.59792 13.4175 10.0346 13.1046 10.3038C13.0188 10.3777 12.8946 10.3726 12.7993 10.3114L11.5569 9.51311Z" fill="#6C707E"/>
<path d="M18.7803 13.0303C19.0732 12.7374 19.0732 12.2626 18.7803 11.9697C18.4874 11.6768 18.0126 11.6768 17.7197 11.9697L18.7803 13.0303ZM17.7197 11.9697L12.7197 16.9697L13.7803 18.0303L18.7803 13.0303L17.7197 11.9697Z" fill="#6C707E"/>
<path d="M16.5833 17.5L13.25 17.5L13.25 14.1667" stroke="#6C707E" stroke-width="1.5" stroke-linecap="round" stroke-linejoin="round"/>
</svg>

<svg width="20" height="20" viewBox="0 0 20 20" fill="none" xmlns="http://www.w3.org/2000/svg"><path fill-rule="evenodd" clip-rule="evenodd" d="M17.74 2.696c.876.294 1.521.98 1.832 1.621.09.175.154.358.195.546a5.676 5.676 0 0 1 .15 2.145c-.14 1.177-.66 2.575-1.962 3.992h-2.198c1.19-.955 1.872-1.888 2.253-2.714a3.434 3.434 0 0 1-1.61.387c-.876 0-1.708-.364-2.464-.745-.23-.115-.453-.233-.677-.35-.561-.295-1.12-.59-1.753-.842-1.672-.668-3.74-.989-6.684.527-.07.036-.127.137-.089.256l.223.692.004.012.748 2.46c.036.096.128.194.342.24.231.052.494.01.668-.087l.01-.006a11.34 11.34 0 0 0 2.214-1.553.75.75 0 1 1 1.004 1.114c-.767.691-1.6 1.27-2.5 1.756a2.501 2.501 0 0 1-1.72.242c-.583-.13-1.195-.507-1.44-1.232l-.005-.011-.003-.012-.447-1.468a6.145 6.145 0 0 0-1.775 2.41c-.444 1.081-.626 2.367-.532 3.874h.634a2.676 2.676 0 0 1 4.931 0h.716A2.676 2.676 0 0 1 11 14.413v1.65a1.181 1.181 0 0 0-1.871.645.965.965 0 0 1-.934.74H6.699a.965.965 0 0 1-.933-.74 1.176 1.176 0 0 0-2.284 0 .965.965 0 0 1-.934.741H.926a.85.85 0 0 1-.845-.761c-.203-1.936-.032-3.676.588-5.184.553-1.347 1.45-2.473 2.687-3.369l-.05-.157c-.25-.774.066-1.656.83-2.05 3.376-1.738 5.902-1.395 7.927-.586.71.284 1.376.634 1.958.94.208.109.405.213.59.305.748.377 1.3.585 1.79.585.754 0 1.305-.38 1.624-.867.27-.413.33-.825.278-1.107a2.754 2.754 0 0 0-.075-.215l-.006-.013a1.76 1.76 0 0 0-.96-.854c-.383-.128-.928-.123-1.615.478a.75.75 0 1 1-.987-1.13c1.046-.913 2.14-1.086 3.08-.77z" fill="#6C707E"/><path fill-rule="evenodd" clip-rule="evenodd" d="M11.557 9.513c-.095-.061-.152-.172-.12-.28a1.034 1.034 0 1 1 1.668 1.07c-.086.075-.21.07-.306.008l-1.242-.798z" fill="#6C707E"/><path d="M18.78 13.03a.75.75 0 1 0-1.06-1.06l1.06 1.06zm-1.06-1.06l-5 5 1.06 1.06 5-5-1.06-1.06z" fill="#6C707E"/><path d="M16.583 17.5H13.25v-3.333" stroke="#6C707E" stroke-width="1.5" stroke-linecap="round" stroke-linejoin="round"/></svg>
